public/img/users/freo.svg

<svg width="455" height="200" viewBox="0 0 455 200" fill="none" xmlns="http://www.w3.org/2000/svg">
<g clip-path="url(#clip0_4215_2902)">
<path d="M335.064 125.309L333.196 125.832C269.982 141.991 272.75 113.777 273.714 108.582H339.973C340.436 106.709 342.746 93.3409 342.746 93.3318C344.105 86.2434 344.69 79.0284 344.491 71.8136C344.117 65.672 341.774 59.8143 337.809 55.1091C334.839 51.4663 331.217 48.4082 327.127 46.0909C319.776 42.0344 311.495 39.9633 303.1 40.0818C286.827 40.0818 273.527 45.8955 264.218 56.6909C258.019 64.1288 253.719 72.9606 251.686 82.4273C251.546 83.0182 251.405 83.5909 251.277 84.2045C250.605 87.3545 248.318 98.2818 247.305 107.455C240.841 164.527 306.168 158.809 330.418 151.359L335.064 125.309ZM277.946 86.7773C277.955 86.15 278.046 85.5318 278.209 84.9273C280.536 76.4864 285.527 65.2818 302.064 65.2818C306.109 65.2818 313.396 66.0273 317.177 70.8864C319.723 74.2091 320.35 79.1727 319.009 85.6591L318.764 86.8227L277.946 86.7773ZM205.491 91.1545C207.482 78.5318 217.832 69.1773 230.614 69.1773C234.6 69.1773 238.855 69.6864 242.432 71.8364L247.582 42.9636C242.031 41.2669 236.286 40.2892 230.486 40.0546C217.775 40.1519 205.51 44.7532 195.871 53.0406C186.231 61.3281 179.843 72.7649 177.841 85.3182L165.341 156.018H193.996L205.491 91.1545ZM442.291 53.3636C437.794 48.8567 432.383 45.3662 426.423 43.1273C420.216 40.8002 413.611 39.7205 406.986 39.95C380.659 40.7909 362.627 56.7364 357.455 83.75C355.962 91.848 354.953 100.028 354.432 108.245C353.809 122.027 358.014 133.923 366.605 142.641C375.486 151.636 388.436 156.586 402.15 156.109C428.332 155.286 446.323 139.314 451.496 112.314C452.937 104.223 453.934 96.0591 454.482 87.8591C455.118 74.0136 450.886 62.0727 442.264 53.3182M427.846 88.1909V88.2818C427.6 92.0182 426.682 101.395 425.632 106.695C421.391 129.227 406.805 129.691 402.005 129.841C399.137 129.981 396.271 129.538 393.579 128.539C390.888 127.54 388.427 126.005 386.346 124.027C382.496 120.109 380.746 114.732 381.091 107.891C381.255 104.277 382.336 94.6318 383.277 89.2955C386.196 73.9773 393.741 66.65 407.036 66.2318C409.988 66.0779 412.939 66.5376 415.704 67.5821C418.469 68.6266 420.988 70.233 423.1 72.3C426.823 76.1682 428.45 81.6 427.905 88.2455M180.391 9.09091C172.48 6.14273 164.167 4.41242 155.736 3.9591C150.962 3.81704 146.198 4.48403 141.646 5.93182C131.474 9.09424 122.383 15.0254 115.391 23.0612C108.398 31.0971 103.781 40.9205 102.055 51.4318L85.7274 143.645C84.749 150.641 81.2768 157.048 75.9499 161.686C70.6231 166.325 63.8 168.883 56.7365 168.891C38.3728 168.891 23.9819 152.618 26.841 134.436L26.9592 133.691C28.1203 126.648 31.7517 120.249 37.2024 115.64C42.653 111.032 49.5668 108.515 56.7047 108.541H81.3456L86.2183 81.05H58.9547C42.0637 81.05 25.6819 89.1864 14.5365 101.727C7.7315 109.164 3.05142 118.293 0.986468 128.159C-0.572623 137.25 -0.281714 146.559 1.84556 155.536C3.26454 161.983 5.95884 168.08 9.76987 173.47C13.5809 178.859 18.4316 183.432 24.0365 186.918C27.9819 189.323 32.1819 191.273 36.5637 192.732C51.0183 197.6 70.0637 197.264 83.841 190.741C100.414 182.909 112.205 166.195 115.223 147.195L117.496 134.414L122.141 108.514H148.691L153.559 81.0364H126.923L131.082 57.6227C131.631 54.2976 132.758 51.0946 134.414 48.1591C137.191 43.3358 141.361 39.4647 146.377 37.0538C151.394 34.643 157.022 33.8051 162.523 34.65C166.35 35.2369 170.006 36.6415 173.241 38.7682C173.823 39.15 174.377 39.5591 174.918 39.9955L180.391 9.09091Z" fill="white"/>
</g>
<defs>
<clipPath id="clip0_4215_2902">
<rect width="454.545" height="200" fill="white"/>
</clipPath>
</defs>
</svg>

<svg xmlns="http://www.w3.org/2000/svg" fill="none" viewBox="0 0 455 200">
    <g clip-path="url(#a)">
        <path fill="#fff" d="m335 125.3-1.8.5c-63.2 16.2-60.4-12-59.5-17.2H340l2.7-15.3a100 100 0 0 0 1.8-21.5 29 29 0 0 0-6.7-16.7 38 38 0 0 0-10.7-9 48 48 0 0 0-24-6 49 49 0 0 0-38.9 16.6 60 60 0 0 0-12.5 25.7l-.4 1.8c-.7 3.2-3 14-4 23.3-6.5 57 58.9 51.3 83.1 43.9zm-57-38.5.2-1.9c2.3-8.4 7.3-19.6 23.9-19.6 4 0 11.3.7 15 5.6q3.9 5 2 14.8l-.3 1.1zm-72.5 4.4c2-12.7 12.3-22 25.1-22 4 0 8.3.5 11.8 2.6l5.2-28.8a68 68 0 0 0-17.1-3 54 54 0 0 0-52.7 45.3L165.3 156H194zm236.8-37.8A45 45 0 0 0 426.4 43 50 50 0 0 0 407 40c-26.3.9-44.4 16.8-49.5 43.8a208 208 0 0 0-3 24.5 45 45 0 0 0 12.1 34.4c8.9 9 21.8 14 35.6 13.5 26.1-.8 44.1-16.8 49.3-43.8a225 225 0 0 0 3-24.4 45 45 0 0 0-12.2-34.6m-14.5 34.9c-.2 3.8-1.1 13.2-2.2 18.5-4.2 22.5-18.8 23-23.6 23.1a21 21 0 0 1-15.7-5.8q-5.7-5.8-5.2-16.1c.2-3.6 1.2-13.3 2.2-18.6 2.9-15.3 10.4-22.7 23.7-23a21 21 0 0 1 16.1 6q5.6 5.9 4.8 16M180.4 9A83 83 0 0 0 155.7 4a42 42 0 0 0-14 2A57 57 0 0 0 102 51.3l-16.4 92.2a29 29 0 0 1-29 25.3 30 30 0 0 1-29.9-34.5l.2-.7a30 30 0 0 1 29.7-25.2h24.6l5-27.5H59a61 61 0 0 0-44.5 20.7A56 56 0 0 0 1 128.2a69 69 0 0 0 .8 27.3A50 50 0 0 0 24 187a61 61 0 0 0 12.6 5.8 68 68 0 0 0 47.2-2 58 58 0 0 0 31.4-43.5l2.3-12.8 4.6-25.9h26.6l4.9-27.5h-26.7l4.2-23.4a29 29 0 0 1 3.3-9.4 28 28 0 0 1 28.1-13.6 27 27 0 0 1 10.7 4.2q1 .5 1.7 1.2z"/>
    </g>
    <defs>
        <clipPath id="a">
            <path fill="#fff" d="M0 0h454.5v200H0z"/>
        </clipPath>
    </defs>
</svg>
